X:2
T:Polka 1870/75  GC 5-
%%MIDI program 21
R:polka
M:2/4
L:1/16
K:G %%MIDI gchordon
"G"DEDC B,DGB | "D7"c2F2 {/G}FEF2 | DFAB cedc | "G"BdG2 GBD2 | DEDC B,DGB | "D7"c2F2 {/G}FEF2 | 
FGAB cedF |1 "G"G2G2 G2z2 :|2 "G"G2G2 G2GF || "Em"E2EE E2B,2 | E2B,2 E2F2 | G2^G2 A2^A2 | "B7"B2BB B2B2 | "D7"e3d c2F2 | 
"G"A2G2 GFG2 | "D7"E2C2 c2F2 | "G"A2G2 GFG2 | "D7"e3d c2F2 | "G"A2G2 GFG2 | "D7"E2D2 c2F2 | "G"G2G2"_Fine" G2E=F |] [K:C] "C"GGG2 e2d2 | 
c2E2 G2c2 | "G7"B2D2 A2B,2 | "C"G2C2 E2EE | G2GG e2d2 | "G7"c2E2 G2c2 | d2G2 B2G2 |1 "C"c2c2 c2EF :|2 "C"c2c2 c2GB || 
"G"e2dB G2Bd | "D7"c2^G2.A4 | c2D2 A2D2 | "G"B2D2 G2GB | e2dB G2Bd | "C"c2e2c4 | "D7"^FGAB c2B2 | "G"G2B2 "_>Teil ?"G2z2 |] 
% pk08989

